X:10
T:Weighing from Land
Z:Jack Campin April 2000
N:macros  expanded
T:"One of the Dead's Lament" (Piobaireachd Society alternate title)
S:Kilberry Book of Ceol Mor
M:6/8
L:1/8
Q:1/8=80
P:AAB ABB AB CCD CDD CD EEF EFF EF GGH GHH GH IIJ IJJ IJ KKL KLL KL MMN MNN
MN OOP OPP OP
K:HP
P:A
"ground"
e<{g}eG {d}B{g}A2|e<{g}eB d{g}A2||\
P:B
e<{g}eB {d}B{g}A2|e<{g}eB d{g}A2||
P:C
"thumb variation"
e<{g}eG {d}B{g}A2|a<eB d{g}A2||\
P:D
e<{g}eB {d}B{g}A2|a<eB d{g}A2||
P:E
"variation 1"
e<{g}G {d}B<{g}A|e<{g}B d<{g}A||\
P:F
e<{g}A {d}B<{g}A|e<{g}B d<{g}A||
P:G
"variation 1 doubling"
e<{g}G {d}B<{g}A|e<{g}A d<{g}A||\
P:H
e<{g}A {d}B<{g}A|e<{g}A d<{g}A||
P:I
"taorluath"
(3{g}A//{d}A//{e}A//<e (3{g}G//{d}G//{e}G//<{d}B|\
(3{g}A//{d}A//{e}A//<e (3{g}B//{d}B//{e}B//<d||\
P:J
(3{g}A//{d}A//{e}A//<e (3{g}A//{d}A//{e}A//<{d}B|\
(3{g}A//{d}A//{e}A//<e (3{g}B//{d}B//{e}B//<d||
P:K
"taorluath doubling"
(3{g}A//{d}A//{e}A//<e (3{g}G//{d}G//{e}G//<{d}B|\
(3{g}A//{d}A//{e}A//<e (3{g}A//{d}A//{e}A//<d||\
P:L
(3{g}A//{d}A//{e}A//<e (3{g}A//{d}A//{e}A//<{d}B|\
(3{g}A//{d}A//{e}A//<e (3{g}A//{d}A//{e}A//<d||
P:M
"crunluath"
e>{GdGeAfA}e {g}G{d}B/{eAfA}e/|e>{GdGeAfA}e {g}Bd/{eAfA}e/||\
P:N
e>{GdGeAfA}e {g}A{d}B/{eAfA}e/|e>{GdGeAfA}e {g}Bd/{eAfA}e/||
P:O
"crunluath doubling"
e>{GdGeAfA}e {g}G{d}B/{eAfA}e/|e>{GdGeAfA}e {g}Ad/{eAfA}e/||\
P:P
e>{GdGeAfA}e {g}A{d}B/{eAfA}e/|e>{GdGeAfA}e {g}Ad/{eAfA}e/|]
%
%Posted Apr 22 2000 at ABC-users by Phil Taylor.
W:
W:
W:  From Musica Viva - http://www.musicaviva.com
W:  the Internet center for free sheet music downloads.

